X:55
T:Miss Nancy's Delight. JJo8.055
B:J.Johnson Choice Collection Vol 8 1758
Z:vmp.Simon Wilson 2013 www.village-music-project.org.uk
M:6/8
L:1/8
Q:3/8=110
K:Gm
|:D|GBd edc|(^f/g/a)e d2{cd}e|dcB (A/B/c)A|(^F/G/A)FD2D|
GBd edc|^f/g/ae d2e|dcBTc3|d3-d2:|
|:d|(=B/c/d)B (f/g/_a)g|(fd)=Bc2_B|(A/B/c)A (e/f/g)f|(ec)AB2e|
(dc)B (AG)^F|(D^F)A (ed)c|(BA)G (DG)^F|G3-G2:|
